src/assets/images/email-graphic.svg

<svg xmlns="http://www.w3.org/2000/svg" width="100" height="100" viewBox="0 0 100 100">
  <g fill="none" fill-rule="evenodd">
    <rect width="100" height="100"/>
    <path fill="#1000C5" d="M78.0690687,66.2621618 L78.0690687,29.7378382 L57.7777778,48 L78.0690687,66.2621618 Z M78.034188,69.2307692 L21.968443,69.2307692 L43.8888889,49.5 L50,55 L56.1111111,49.5 L78.034188,69.2307692 Z M21.968443,66.2284013 L21.968443,29.7715987 L42.2222222,48 L21.968443,66.2284013 Z M78.034188,26.7692308 L21.968443,26.7692308 L50,52 L78.034188,26.7692308 Z M20,25 L80,25 L80,71 L20,71 L20,25 Z"/>
    <path fill="#1000C5" d="M45,23 L59,23 L59,25 L45,25 L45,23 Z M45,3 L59,3 L59,5 L45,5 L45,3 Z M41,13 L57,13 L57,15 L41,15 L41,13 Z" transform="rotate(90 50 14)"/>
    <path fill="#1000C5" d="M2,93 L98,93 L98,73 L83.5,73 L68.5,81 L31.5,81 L16.5,73 L2,73 L2,93 Z M0,71 L17,71 L32,79 L68,79 L83,71 L100,71 L100,95 L0,95 L0,71 Z"/>
  </g>
</svg>

<svg xmlns="http://www.w3.org/2000/svg" width="100" height="100" viewBox="0 0 100 100"><g fill="none" fill-rule="evenodd"><path d="M0 0h100v100H0z"/><path fill="#1000C5" d="M78.07 66.262V29.738L57.777 48l20.291 18.262zm-.036 2.969H21.968L43.888 49.5 50 55l6.111-5.5 21.923 19.73zm-56.066-3.003V29.772L42.222 48 21.968 66.228zM78.034 26.77H21.968L50 52l28.034-25.23zM20 25h60v46H20V25zM41 9v14h-2V9h2zm20 0v14h-2V9h2zM51 5v16h-2V5h2zM2 93h96V73H83.5l-15 8h-37l-15-8H2v20zM0 71h17l15 8h36l15-8h17v24H0V71z"/></g></svg>
